public/avatar/body/52.svg

<svg xmlns:xlink="http://www.w3.org/1999/xlink" height="82" width="84.85" xmlns="http://www.w3.org/2000/svg"><g transform="translate(37.4 42.25)"><use height="38" transform="translate(-11.95 -17.45)" width="32.05" xlink:href="#a"/><use height="38.95" transform="translate(-12.45 -17.95)" width="33.05" xlink:href="#b"/><use height="23.65" transform="translate(-15.2 -.15)" width="38.75" xlink:href="#c"/></g><defs><path d="M27.35 7.4q2.15 4.15 3.55 8.75 1.45 4.7 1.15 9.5-.35 4.95-4.2 8.1-3.8 3.2-8.75 4.05l-2.6.2q-3.6 0-7.05-1.15-4.65-1.6-7.1-5.5Q-.2 27.4.05 23q.2-4.4 2-9.3Q3.85 8.75 7 5.05 10.1 1.3 14.7.1l1.8-.1q1.9.05 3.7.8 4.75 2.05 7.15 6.6" fill="#fff" fill-rule="evenodd" transform="translate(-.05)" id="d"/><path d="M27.35 7.4Q24.95 2.85 20.2.8 17.55-.3 14.7.1 10.1 1.3 7 5.05q-3.15 3.7-4.95 8.65-1.8 4.9-2 9.3-.25 4.4 2.3 8.35 2.45 3.9 7.1 5.5 4.65 1.55 9.65.95 4.95-.85 8.75-4.05 3.85-3.15 4.2-8.1.3-4.8-1.15-9.5-1.4-4.6-3.55-8.75Z" fill="none" stroke="#000" stroke-linecap="round" stroke-linejoin="round" transform="translate(.45 .5)" id="e"/><use height="38" width="32.05" xlink:href="#d" id="a"/><use height="38.95" width="33.05" xlink:href="#e" id="b"/><g id="c"><path d="M-6.75 7.45q5 2.65 10.55 2.7" fill="none" stroke="#333" stroke-linecap="round" stroke-linejoin="round" transform="translate(15.2 .15)"/><path d="M3 11.25h-.2l-.25-.1-.2-.15-.2-.25L2 10.5l.05-.25q1.8-1.85 4.4-2.6l.4.5.25.45q.2.85-.4 1.45v.1Q4.55 9.5 3 11.25" fill="#ffddbc" fill-rule="evenodd" transform="translate(15.2 .15)"/><path d="M6.7 10.15q.35 1.95-1.3 3.15-1.7 1.4-3.8 1.1l.95-1.8.45-1.35q1.55-1.75 3.7-1.1" fill="#fff" fill-rule="evenodd" transform="translate(15.2 .15)"/><path d="M3 11.25h-.2l-.25-.1-.2-.15-.2-.25L2 10.5l.05-.25q1.8-1.85 4.4-2.6l.4.5.25.45q.2.85-.4 1.45v.1q.35 1.95-1.3 3.15-1.7 1.4-3.8 1.1l.95-1.8.45-1.35Z" fill="none" stroke="#964343" stroke-linecap="round" stroke-linejoin="round" transform="translate(15.2 .15)"/><path d="M5.15 9.9q5.6 0 11.7-2.7" fill="none" stroke="#333" stroke-linecap="round" stroke-linejoin="round" transform="translate(15.2 .15)"/><path d="M22 7.4q1.6 6.65.35 9-1.25 2.35-3.7 4.2-2.5 1.8-6.7 1.95-3.6.1-4.25-1.35-.45-1.05 1-7 1.4-5.75 2.35-7.35 1.15-2 8.5-6.15.8 0 2.45 6.7" fill="#e84343" fill-rule="evenodd" transform="translate(15.2 .15)"/><path d="M19.55.7q3.4 9.3 3.5 12.15.2 3.8-2.1 5.9-1.25 1.15-4.6 2.75-3.3 1.6-4.15 1.5-4.15-.55-4.5-1.8v-1.85" fill="none" stroke="#962525" stroke-linecap="round" stroke-linejoin="round" transform="translate(15.2 .15)"/><path d="M-11.2.7q7.4 4.15 8.55 6.15.95 1.6 2.35 7.35 1.45 5.95 1 7-.65 1.45-4.25 1.35-4.2-.15-7.65-3.05-1.2-1.05-2.4-3.15-1.4-2.5-1.1-4Q-12 .7-11.2.7" fill="#e84343" fill-rule="evenodd" transform="translate(15.2 .15)"/><path d="M-11.3.35q7 3.9 9 7.25 2 3.4 3 11.4" fill="none" stroke="#ffabab" stroke-linecap="round" stroke-linejoin="round" transform="translate(15.2 .15)"/><path d="M-11.2.7q-3.35 9.3-3.5 12.15-.15 3.8 2.15 5.9 1.25 1.15 4.6 2.75Q-4.7 23.1-3.8 23q4.15-.55 4.5-1.8v-1.85" fill="none" stroke="#962525" stroke-linecap="round" stroke-linejoin="round" transform="translate(15.2 .15)"/><path d="M-2.95 7.1q-1.1-.25-1.85.4-.75.6-1.25 2.35l-3-2.8q-.85-.75-1.7-2.85-.9-2.05-.7-2.9" fill="none" stroke="#962525" stroke-linecap="round" stroke-linejoin="round" transform="translate(15.2 .15)"/><path d="M19.45.35Q11.95 5.1 10.7 7.6T7.7 19" fill="none" stroke="#ffabab" stroke-linecap="round" stroke-linejoin="round" transform="translate(15.2 .15)"/><path d="m11.3 7.1 1.9.4q.75.6 1.25 2.35l3-2.8q.85-.75 1.7-2.85.9-2.1.7-2.9" fill="none" stroke="#962525" stroke-linecap="round" stroke-linejoin="round" transform="translate(15.2 .15)"/><path d="M22.8 12q.05 1.7-.95 2.05l-2.45-.45q-.55 2.1-1.7 2.75-.7.45-2.2-.4l-.7-.5.05-.75q0-.6-.75-1.2-.7-.6-1.25-.45l-2.3.65.3 1.15 1.5-.65 1 .5-.35 1.55q-.8.6-1.45.6-.75 0-1.85-.75l-1-.75.5-2.65 1-.9q1.1-.8 1.5-.6l3.15 1.15 1.8-1.1-.1 2.45 1 .85.55-3.8 1.6-.7.35-1.3q.45-1.35 1-1.55L22.8 12m-26.45-.65h.9q1.2.2 1.8 1 .8 1.2.8 2.5l.2 1.85q-1 1.35-2.2 1.35-.7 0-1.95-.85l-1.05-.85q-1.5 1.7-3.15 1.5-.95-.1-1.6-1.05l2.45-1.6-.2-1-3.15 1.35-2.15-1.7q-1-2-1-2.5 0-1.75.5-3 .25-.85 1.65-.5 1.15.35 1.65 2.7l1.05-.05q1.2 0 2.15.55 1.5.8 1.65 1.8l.1-.05-.25.9.8 1.85 1.7.65.65-1.15-1-.2-.85-1-.15-2.15.65-.35" fill="#ffe3e3" fill-rule="evenodd" transform="translate(15.2 .15)"/></g></defs></svg>

<?xml version="1.0" encoding="UTF-8" standalone="no"?>
<svg xmlns:xlink="http://www.w3.org/1999/xlink" height="82.0px" width="84.85px" xmlns="http://www.w3.org/2000/svg">
  <g transform="matrix(1.0, 0.0, 0.0, 1.0, 37.4, 42.25)">
    <use height="38.0" transform="matrix(1.0, 0.0, 0.0, 1.0, -11.95, -17.45)" width="32.05" xlink:href="#sprite0"/>
    <use height="38.95" transform="matrix(1.0, 0.0, 0.0, 1.0, -12.45, -17.95)" width="33.05" xlink:href="#sprite1"/>
    <use height="23.65" transform="matrix(1.0, 0.0, 0.0, 1.0, -15.2, -0.15)" width="38.75" xlink:href="#shape2"/>
  </g>
  <defs>
    <g id="sprite0" transform="matrix(1.0, 0.0, 0.0, 1.0, -0.05, 0.0)">
      <use height="38.0" transform="matrix(1.0, 0.0, 0.0, 1.0, 0.05, 0.0)" width="32.05" xlink:href="#shape0"/>
    </g>
    <g id="shape0" transform="matrix(1.0, 0.0, 0.0, 1.0, -0.05, 0.0)">
      <path d="M27.35 7.4 Q29.5 11.55 30.9 16.15 32.35 20.85 32.05 25.65 31.7 30.6 27.85 33.75 24.05 36.95 19.1 37.8 L16.5 38.0 Q12.9 38.0 9.45 36.85 4.8 35.25 2.35 31.35 -0.2 27.4 0.05 23.0 0.25 18.6 2.05 13.7 3.85 8.75 7.0 5.05 10.1 1.3 14.7 0.1 L16.5 0.0 Q18.4 0.05 20.2 0.8 24.95 2.85 27.35 7.4" fill="#ffffff" fill-rule="evenodd" stroke="none"/>
    </g>
    <g id="sprite1" transform="matrix(1.0, 0.0, 0.0, 1.0, 0.45, 0.5)">
      <use height="38.95" transform="matrix(1.0, 0.0, 0.0, 1.0, -0.45, -0.5)" width="33.05" xlink:href="#shape1"/>
    </g>
    <g id="shape1" transform="matrix(1.0, 0.0, 0.0, 1.0, 0.45, 0.5)">
      <path d="M27.35 7.4 Q24.95 2.85 20.2 0.8 17.55 -0.3 14.7 0.1 10.1 1.3 7.0 5.05 3.85 8.75 2.05 13.7 0.25 18.6 0.05 23.0 -0.2 27.4 2.35 31.35 4.8 35.25 9.45 36.85 14.1 38.4 19.1 37.8 24.05 36.95 27.85 33.75 31.7 30.6 32.05 25.65 32.35 20.85 30.9 16.15 29.5 11.55 27.35 7.4 Z" fill="none" stroke="#000000" stroke-linecap="round" stroke-linejoin="round" stroke-width="1.0"/>
    </g>
    <g id="shape2" transform="matrix(1.0, 0.0, 0.0, 1.0, 15.2, 0.15)">
      <path d="M-6.75 7.45 Q-1.75 10.1 3.8 10.15" fill="none" stroke="#333333" stroke-linecap="round" stroke-linejoin="round" stroke-width="1.0"/>
      <path d="M3.0 11.25 L2.8 11.25 2.55 11.15 2.35 11.0 2.15 10.75 2.0 10.5 2.05 10.25 Q3.85 8.4 6.45 7.65 L6.85 8.15 7.1 8.6 Q7.3 9.45 6.7 10.05 L6.7 10.15 Q4.55 9.5 3.0 11.25" fill="#ffddbc" fill-rule="evenodd" stroke="none"/>
      <path d="M6.7 10.15 Q7.05 12.1 5.4 13.3 3.7 14.7 1.6 14.4 L2.55 12.6 3.0 11.25 Q4.55 9.5 6.7 10.15" fill="#ffffff" fill-rule="evenodd" stroke="none"/>
      <path d="M3.0 11.25 L2.8 11.25 2.55 11.15 2.35 11.0 2.15 10.75 2.0 10.5 2.05 10.25 Q3.85 8.4 6.45 7.65 L6.85 8.15 7.1 8.6 Q7.3 9.45 6.7 10.05 L6.7 10.15 Q7.05 12.1 5.4 13.3 3.7 14.7 1.6 14.4 L2.55 12.6 3.0 11.25 Z" fill="none" stroke="#964343" stroke-linecap="round" stroke-linejoin="round" stroke-width="1.0"/>
      <path d="M5.15 9.9 Q10.75 9.9 16.85 7.2" fill="none" stroke="#333333" stroke-linecap="round" stroke-linejoin="round" stroke-width="1.0"/>
      <path d="M22.0 7.4 Q23.6 14.05 22.35 16.4 21.1 18.75 18.65 20.6 16.15 22.4 11.95 22.55 8.35 22.65 7.7 21.2 7.25 20.15 8.7 14.2 10.1 8.45 11.05 6.85 12.2 4.85 19.55 0.7 20.35 0.7 22.0 7.4" fill="#e84343" fill-rule="evenodd" stroke="none"/>
      <path d="M19.55 0.7 Q22.95 10.0 23.05 12.85 23.25 16.65 20.95 18.75 19.7 19.9 16.35 21.5 13.05 23.1 12.2 23.0 8.05 22.45 7.7 21.2 L7.7 19.35" fill="none" stroke="#962525" stroke-linecap="round" stroke-linejoin="round" stroke-width="1.0"/>
      <path d="M-11.2 0.7 Q-3.8 4.85 -2.65 6.85 -1.7 8.45 -0.3 14.2 1.15 20.15 0.7 21.2 0.05 22.65 -3.55 22.55 -7.75 22.4 -11.2 19.5 -12.4 18.45 -13.6 16.35 -15.0 13.85 -14.7 12.35 -12.0 0.7 -11.2 0.7" fill="#e84343" fill-rule="evenodd" stroke="none"/>
      <path d="M-11.3 0.35 Q-4.3 4.25 -2.3 7.6 -0.3 11.0 0.7 19.0" fill="none" stroke="#ffabab" stroke-linecap="round" stroke-linejoin="round" stroke-width="1.0"/>
      <path d="M-11.2 0.7 Q-14.55 10.0 -14.7 12.85 -14.85 16.65 -12.55 18.75 -11.3 19.9 -7.95 21.5 -4.7 23.1 -3.8 23.0 0.35 22.45 0.7 21.2 L0.7 19.35" fill="none" stroke="#962525" stroke-linecap="round" stroke-linejoin="round" stroke-width="1.0"/>
      <path d="M-2.95 7.1 Q-4.05 6.85 -4.8 7.5 -5.55 8.1 -6.05 9.85 L-9.05 7.05 Q-9.9 6.3 -10.75 4.2 -11.65 2.15 -11.45 1.3" fill="none" stroke="#962525" stroke-linecap="round" stroke-linejoin="round" stroke-width="1.0"/>
      <path d="M19.45 0.35 Q11.95 5.1 10.7 7.6 9.45 10.1 7.7 19.0" fill="none" stroke="#ffabab" stroke-linecap="round" stroke-linejoin="round" stroke-width="1.0"/>
      <path d="M11.3 7.1 L13.2 7.5 Q13.95 8.1 14.45 9.85 L17.45 7.05 Q18.3 6.3 19.15 4.2 20.05 2.1 19.85 1.3" fill="none" stroke="#962525" stroke-linecap="round" stroke-linejoin="round" stroke-width="1.0"/>
      <path d="M22.8 12.0 Q22.85 13.7 21.85 14.05 L19.4 13.6 Q18.85 15.7 17.7 16.35 17.0 16.8 15.5 15.95 L14.8 15.45 14.85 14.7 Q14.85 14.1 14.1 13.5 13.4 12.9 12.85 13.05 L10.55 13.7 10.85 14.85 12.35 14.2 13.35 14.7 13.0 16.25 Q12.2 16.85 11.55 16.85 10.8 16.85 9.7 16.1 L8.7 15.35 9.2 12.7 10.2 11.8 Q11.3 11.0 11.7 11.2 L14.85 12.35 16.65 11.25 16.55 13.7 17.55 14.55 18.1 10.75 19.7 10.05 20.05 8.75 Q20.5 7.4 21.05 7.2 L22.8 12.0" fill="#ffe3e3" fill-rule="evenodd" stroke="none"/>
      <path d="M-3.65 11.35 L-2.75 11.35 Q-1.55 11.55 -0.95 12.35 -0.15 13.55 -0.15 14.85 L0.05 16.7 Q-0.95 18.05 -2.15 18.05 -2.85 18.05 -4.1 17.2 L-5.15 16.35 Q-6.65 18.05 -8.3 17.85 -9.25 17.75 -9.9 16.8 L-7.45 15.2 -7.65 14.2 -10.8 15.55 -12.95 13.85 Q-13.95 11.85 -13.95 11.35 -13.95 9.6 -13.45 8.35 -13.2 7.5 -11.8 7.85 -10.65 8.2 -10.15 10.55 L-9.1 10.5 Q-7.9 10.5 -6.95 11.05 -5.45 11.85 -5.3 12.85 L-5.2 12.8 -5.45 13.7 -4.65 15.55 -2.95 16.2 -2.3 15.05 -3.3 14.85 -4.15 13.85 -4.3 11.7 -3.65 11.35" fill="#ffe3e3" fill-rule="evenodd" stroke="none"/>
    </g>
  </defs>
</svg>
